X:358
T: ICH GIENG ZUM KUEHLEN WEIN
N: E0203C
O: Europa, Mitteleuropa, Deutschland, Schlesien
R: erzaehlendes Volks - Lied, Todes - Ahnung; betrogene Liebe
M: 3/4
L: 1/8
K: G
 | D2G2Ac | B3AG
G | ABcBdB | A4z2 |
GBd3c | BAdcB
A | dcB2A2 | G4z2

@@@ Tune index: 4008
